!!!OTL@@FUR: Mariutine '&egrave; lade ad aghe
!!!OTL@IT: Marietta &egrave; andata (a prendere) dell'acqua
!!!OTL@EN: Marietta went to get the water
**kern
*clefG2
*k[f#c#]
*D:
*M2/4
*MM110
*>[A,B,A,C]
=1
*>A
4.a
8a
=2
8b
8b
8a
8a
=3
2g
=4
2e
=5
4.b
8b
=6
8cc#
8cc#
8b
8b
=7
2a
=8
2f#
=9
4.a
8a
=10
8b
8b
8a
8a
=11
2g
=12
2e
=13
4.b
8b
=14
8cc#
8cc#
8b
8b
=15
4a
8a
8a
=16
8b
8b
8a
8a
=17
4g
8g
8g
=18
4a
8cc#
8b
=19||
*>B
4a
4g
=20
2f#
=21:|!
*>C
4a
4cc#
=22
2dd
==
*-
!!!ARE: Friuli
!!!ENC: Kelly Leistikow
!!!END: 2002/03/07
!!!ref: @{OTL@@FUR}/@{OTL@EN}
